src/apps/scalable/com.github.panosx2.brightness.svg

<?xml version="1.0" encoding="UTF-8" standalone="no"?>
<svg
   width="128"
   height="128"
   viewBox="0 0 33.866666 33.866668"
   version="1.1"
   id="svg1535"
   inkscape:version="1.3.2 (091e20ef0f, 2023-11-25)"
   sodipodi:docname="com.github.panosx2.brightness.svg"
   xmlns:inkscape="http://www.inkscape.org/namespaces/inkscape"
   xmlns:sodipodi="http://sodipodi.sourceforge.net/DTD/sodipodi-0.dtd"
   xmlns:xlink="http://www.w3.org/1999/xlink"
   xmlns="http://www.w3.org/2000/svg"
   xmlns:svg="http://www.w3.org/2000/svg"
   xmlns:rdf="http://www.w3.org/1999/02/22-rdf-syntax-ns#"
   xmlns:cc="http://creativecommons.org/ns#"
   xmlns:dc="http://purl.org/dc/elements/1.1/">
  <defs
     id="defs1529">
    <linearGradient
       gradientUnits="userSpaceOnUse"
       y2="28.95187"
       x2="4.9738135"
       y1="6.4081883"
       x1="26.124226"
       id="linearGradient2042"
       xlink:href="#linearGradient2040"
       inkscape:collect="always"
       gradientTransform="translate(-0.0365727,-0.06189527)" />
    <linearGradient
       id="linearGradient2040"
       inkscape:collect="always">
      <stop
         id="stop2036"
         offset="0"
         style="stop-color:#000000;stop-opacity:1" />
      <stop
         id="stop2038"
         offset="1"
         style="stop-color:#000000;stop-opacity:1" />
    </linearGradient>
    <linearGradient
       gradientUnits="userSpaceOnUse"
       y2="4.3134179"
       x2="17.585337"
       y1="25.474516"
       x1="17.585337"
       id="linearGradient7784"
       xlink:href="#linearGradient7782"
       inkscape:collect="always"
       gradientTransform="translate(-0.0365727,-0.06189527)" />
    <linearGradient
       id="linearGradient7782"
       inkscape:collect="always">
      <stop
         id="stop7778"
         offset="0"
         style="stop-color:#0b95ff;stop-opacity:1" />
      <stop
         id="stop7780"
         offset="1"
         style="stop-color:#03caf1;stop-opacity:1" />
    </linearGradient>
    <linearGradient
       gradientTransform="matrix(0.26458333,0,0,0.26458333,-0.0365727,-0.06189857)"
       gradientUnits="userSpaceOnUse"
       y2="21.264637"
       x2="79.514992"
       y1="96.281647"
       x1="66.464264"
       id="linearGradient7756"
       xlink:href="#linearGradient7754"
       inkscape:collect="always" />
    <linearGradient
       id="linearGradient7754"
       inkscape:collect="always">
      <stop
         id="stop7750"
         offset="0"
         style="stop-color:#0b95ff;stop-opacity:1" />
      <stop
         id="stop7752"
         offset="1"
         style="stop-color:#5dc3ef;stop-opacity:1" />
    </linearGradient>
  </defs>
  <sodipodi:namedview
     id="base"
     pagecolor="#ffffff"
     bordercolor="#666666"
     borderopacity="1.0"
     inkscape:pageopacity="0.0"
     inkscape:pageshadow="2"
     inkscape:zoom="5.6"
     inkscape:cx="67.767857"
     inkscape:cy="65.803571"
     inkscape:document-units="mm"
     inkscape:current-layer="layer1"
     inkscape:document-rotation="0"
     showgrid="false"
     units="px"
     inkscape:window-width="1920"
     inkscape:window-height="1011"
     inkscape:window-x="0"
     inkscape:window-y="0"
     inkscape:window-maximized="1"
     inkscape:showpageshadow="0"
     inkscape:pagecheckerboard="1"
     inkscape:deskcolor="#d1d1d1" />
  <metadata
     id="metadata1532">
    <rdf:RDF>
      <cc:Work
         rdf:about="">
        <dc:format>image/svg+xml</dc:format>
        <dc:type
           rdf:resource="http://purl.org/dc/dcmitype/StillImage" />
        <dc:title />
      </cc:Work>
    </rdf:RDF>
  </metadata>
  <g
     inkscape:label="Capa 1"
     inkscape:groupmode="layer"
     id="layer1">
    <g
       style="opacity:0.295"
       transform="matrix(0.97573206,0,0,0.97573206,-65.784958,-37.264988)"
       id="g1702">
      <rect
         ry="6.6098609"
         rx="6.6098609"
         y="40.709618"
         x="69.839508"
         height="29.810888"
         width="29.810888"
         id="rect1634"
         style="fill:none;fill-opacity:1;stroke:#000000;stroke-width:0.1;stroke-linecap:round;stroke-linejoin:round;stroke-miterlimit:4;stroke-dasharray:none;stroke-opacity:0.02" />
      <rect
         style="fill:none;fill-opacity:1;stroke:#000000;stroke-width:0.2;stroke-linecap:round;stroke-linejoin:round;stroke-miterlimit:4;stroke-dasharray:none;stroke-opacity:0.02"
         id="rect1638"
         width="29.810888"
         height="29.810888"
         x="69.839508"
         y="40.709618"
         rx="6.6098609"
         ry="6.6098609" />
      <rect
         ry="6.6098609"
         rx="6.6098609"
         y="40.709618"
         x="69.839508"
         height="29.810888"
         width="29.810888"
         id="rect1640"
         style="fill:none;fill-opacity:1;stroke:#000000;stroke-width:0.3;stroke-linecap:round;stroke-linejoin:round;stroke-miterlimit:4;stroke-dasharray:none;stroke-opacity:0.02" />
      <rect
         style="fill:none;fill-opacity:1;stroke:#000000;stroke-width:0.4;stroke-linecap:round;stroke-linejoin:round;stroke-miterlimit:4;stroke-dasharray:none;stroke-opacity:0.02"
         id="rect1642"
         width="29.810888"
         height="29.810888"
         x="69.839508"
         y="40.709618"
         rx="6.6098609"
         ry="6.6098609" />
      <rect
         ry="6.6098609"
         rx="6.6098609"
         y="40.709618"
         x="69.839508"
         height="29.810888"
         width="29.810888"
         id="rect1644"
         style="fill:none;fill-opacity:1;stroke:#000000;stroke-width:0.5;stroke-linecap:round;stroke-linejoin:round;stroke-miterlimit:4;stroke-dasharray:none;stroke-opacity:0.02" />
      <rect
         style="fill:none;fill-opacity:1;stroke:#000000;stroke-width:0.6;stroke-linecap:round;stroke-linejoin:round;stroke-miterlimit:4;stroke-dasharray:none;stroke-opacity:0.02"
         id="rect1646"
         width="29.810888"
         height="29.810888"
         x="69.839508"
         y="40.709618"
         rx="6.6098609"
         ry="6.6098609" />
      <rect
         ry="6.6098609"
         rx="6.6098609"
         y="40.709618"
         x="69.839508"
         height="29.810888"
         width="29.810888"
         id="rect1648"
         style="fill:none;fill-opacity:1;stroke:#000000;stroke-width:0.7;stroke-linecap:round;stroke-linejoin:round;stroke-miterlimit:4;stroke-dasharray:none;stroke-opacity:0.02" />
      <rect
         style="fill:none;fill-opacity:1;stroke:#000000;stroke-width:0.8;stroke-linecap:round;stroke-linejoin:round;stroke-miterlimit:4;stroke-dasharray:none;stroke-opacity:0.02"
         id="rect1650"
         width="29.810888"
         height="29.810888"
         x="69.839508"
         y="40.709618"
         rx="6.6098609"
         ry="6.6098609" />
      <rect
         ry="6.6098609"
         rx="6.6098609"
         y="40.709618"
         x="69.839508"
         height="29.810888"
         width="29.810888"
         id="rect1652"
         style="fill:none;fill-opacity:1;stroke:#000000;stroke-width:1;stroke-linecap:round;stroke-linejoin:round;stroke-miterlimit:4;stroke-dasharray:none;stroke-opacity:0.02" />
      <rect
         style="fill:none;fill-opacity:1;stroke:#000000;stroke-width:1.2;stroke-linecap:round;stroke-linejoin:round;stroke-miterlimit:4;stroke-dasharray:none;stroke-opacity:0.02"
         id="rect1654"
         width="29.810888"
         height="29.810888"
         x="69.839508"
         y="40.709618"
         rx="6.6098609"
         ry="6.6098609" />
      <rect
         ry="6.6098609"
         rx="6.6098609"
         y="40.709618"
         x="69.839508"
         height="29.810888"
         width="29.810888"
         id="rect1656"
         style="fill:none;fill-opacity:1;stroke:#000000;stroke-width:1.4;stroke-linecap:round;stroke-linejoin:round;stroke-miterlimit:4;stroke-dasharray:none;stroke-opacity:0.02" />
      <rect
         style="fill:none;fill-opacity:1;stroke:#000000;stroke-width:1.6;stroke-linecap:round;stroke-linejoin:round;stroke-miterlimit:4;stroke-dasharray:none;stroke-opacity:0.02"
         id="rect1658"
         width="29.810888"
         height="29.810888"
         x="69.839508"
         y="40.709618"
         rx="6.6098609"
         ry="6.6098609" />
      <rect
         ry="6.6098609"
         rx="6.6098609"
         y="40.709618"
         x="69.839508"
         height="29.810888"
         width="29.810888"
         id="rect1660"
         style="fill:none;fill-opacity:1;stroke:#000000;stroke-width:1.8;stroke-linecap:round;stroke-linejoin:round;stroke-miterlimit:4;stroke-dasharray:none;stroke-opacity:0.02" />
      <rect
         style="fill:none;fill-opacity:1;stroke:#000000;stroke-width:2;stroke-linecap:round;stroke-linejoin:round;stroke-miterlimit:4;stroke-dasharray:none;stroke-opacity:0.02"
         id="rect1662"
         width="29.810888"
         height="29.810888"
         x="69.839508"
         y="40.709618"
         rx="6.6098609"
         ry="6.6098609" />
      <rect
         ry="6.6098609"
         rx="6.6098609"
         y="40.709618"
         x="69.839508"
         height="29.810888"
         width="29.810888"
         id="rect1664"
         style="fill:none;fill-opacity:1;stroke:#000000;stroke-width:2.2;stroke-linecap:round;stroke-linejoin:round;stroke-miterlimit:4;stroke-dasharray:none;stroke-opacity:0.02" />
      <rect
         style="fill:none;fill-opacity:1;stroke:#000000;stroke-width:2.6;stroke-linecap:round;stroke-linejoin:round;stroke-miterlimit:4;stroke-dasharray:none;stroke-opacity:0.02"
         id="rect1666"
         width="29.810888"
         height="29.810888"
         x="69.839508"
         y="40.709618"
         rx="6.6098609"
         ry="6.6098609" />
      <rect
         ry="6.6098609"
         rx="6.6098609"
         y="40.709618"
         x="69.839508"
         height="29.810888"
         width="29.810888"
         id="rect1668"
         style="fill:none;fill-opacity:1;stroke:#000000;stroke-width:3;stroke-linecap:round;stroke-linejoin:round;stroke-miterlimit:4;stroke-dasharray:none;stroke-opacity:0.02" />
      <rect
         style="fill:none;fill-opacity:1;stroke:#000000;stroke-width:3.4;stroke-linecap:round;stroke-linejoin:round;stroke-miterlimit:4;stroke-dasharray:none;stroke-opacity:0.02"
         id="rect1670"
         width="29.810888"
         height="29.810888"
         x="69.839508"
         y="40.709618"
         rx="6.6098609"
         ry="6.6098609" />
      <rect
         ry="6.6098609"
         rx="6.6098609"
         y="40.709618"
         x="69.839508"
         height="29.810888"
         width="29.810888"
         id="rect1672"
         style="fill:none;fill-opacity:1;stroke:#000000;stroke-width:3.8;stroke-linecap:round;stroke-linejoin:round;stroke-miterlimit:4;stroke-dasharray:none;stroke-opacity:0.02" />
      <rect
         style="fill:none;fill-opacity:1;stroke:#000000;stroke-width:4.2;stroke-linecap:round;stroke-linejoin:round;stroke-miterlimit:4;stroke-dasharray:none;stroke-opacity:0.02"
         id="rect1674"
         width="29.810888"
         height="29.810888"
         x="69.839508"
         y="40.709618"
         rx="6.6098609"
         ry="6.6098609" />
      <rect
         ry="6.6098609"
         rx="6.6098609"
         y="40.709618"
         x="69.839508"
         height="29.810888"
         width="29.810888"
         id="rect1676"
         style="fill:none;fill-opacity:1;stroke:#000000;stroke-width:4.6;stroke-linecap:round;stroke-linejoin:round;stroke-miterlimit:4;stroke-dasharray:none;stroke-opacity:0.02" />
      <rect
         style="fill:none;fill-opacity:1;stroke:#000000;stroke-width:5;stroke-linecap:round;stroke-linejoin:round;stroke-miterlimit:4;stroke-dasharray:none;stroke-opacity:0.02"
         id="rect1678"
         width="29.810888"
         height="29.810888"
         x="69.839508"
         y="40.709618"
         rx="6.6098609"
         ry="6.6098609" />
    </g>
    <rect
       ry="6.4494534"
       rx="6.4494534"
       y="2.4566898"
       x="2.3596914"
       height="29.08744"
       width="29.08744"
       id="rect849"
       style="fill:url(#linearGradient2042);fill-opacity:1;stroke-width:2.68801;stroke-linecap:round;stroke-linejoin:round;stroke-miterlimit:4;stroke-dasharray:none" />
    <path
       id="rect901"
       style="fill:#dbdbde;fill-opacity:1;stroke:#808080;stroke-width:0.233683;stroke-miterlimit:4;stroke-dasharray:none;stroke-opacity:1"
       d="m 8.8093994,2.4568108 c -3.5729974,0 -6.4497359,2.8762216 -6.4497359,6.4492187 V 25.094707 c 0,3.572998 2.8767385,6.44922 6.4497359,6.44922 H 24.99756 c 3.572997,0 6.449735,-2.876222 6.449735,-6.44922 V 8.9060295 c 0,-3.5729971 -2.876738,-6.4492187 -6.449735,-6.4492187 z" />
    <path
       id="rect897"
       style="fill:#000000;fill-opacity:1;stroke:none;stroke-width:0.10242"
       d="m 8.8093994,2.4568108 c -3.5729974,0 -6.4497359,2.8762216 -6.4497359,6.4492187 V 25.094707 c 0,0.422472 0.041513,0.834642 0.1183391,1.234034 H 31.328958 c 0.07682,-0.399386 0.118337,-0.811569 0.118337,-1.234034 V 8.9060295 c 0,-3.5729971 -2.876738,-6.4492187 -6.449735,-6.4492187 z" />
    <path
       style="fill:url(#linearGradient7784);fill-opacity:1;stroke:url(#linearGradient7756);stroke-width:0.150866;stroke-miterlimit:4;stroke-dasharray:0.0377164, 0.0377164;stroke-dashoffset:0;stroke-opacity:1"
       d="m 8.8093991,2.4568141 c -3.4613411,0 -6.2693527,2.6993309 -6.4414674,6.1164224 -0.00427,0.118358 -0.00827,0.234968 -0.00827,0.332796 V 24.492162 H 31.447292 V 8.9060325 c 0,-0.111656 -0.0027,-0.222567 -0.0083,-0.332796 C 31.26691,5.156145 28.458898,2.4568141 24.997559,2.4568141 Z"
       id="rect1848" />
    <path
       style="opacity:0.373;fill:#afe1fe;fill-opacity:1;stroke:none;stroke-width:1.5;stroke-linecap:round;stroke-linejoin:round;stroke-miterlimit:4;stroke-dasharray:none;stroke-opacity:1"
       d="M 7.5805333,2.5736028 C 4.7049382,3.1241545 2.519134,5.5713299 2.3679317,8.5732365 c -0.00427,0.118358 -0.00827,0.234968 -0.00827,0.332796 V 24.492162 h 5.2208699 z"
       id="rect1413" />
    <path
       style="opacity:0.373;fill:#afe1fe;fill-opacity:1;stroke:none;stroke-width:1.92997;stroke-linecap:round;stroke-linejoin:round;stroke-miterlimit:4;stroke-dasharray:none;stroke-opacity:1"
       d="m 8.8093991,2.4568141 c -3.4613411,0 -6.2693527,2.6993309 -6.4414674,6.1164224 -0.00427,0.118358 -0.00827,0.234968 -0.00827,0.332796 V 24.492162 H 12.792619 V 2.4568141 Z"
       id="rect1415" />
    <path
       style="opacity:0.373;fill:#afe1fe;fill-opacity:1;stroke:none;stroke-width:2.25943;stroke-linecap:round;stroke-linejoin:round;stroke-miterlimit:4;stroke-dasharray:none;stroke-opacity:1"
       d="m 8.8093991,2.4568141 c -3.4613411,0 -6.2693527,2.6993309 -6.4414674,6.1164224 -0.00427,0.118358 -0.00827,0.234968 -0.00827,0.332796 V 24.492162 H 17.66984 V 2.4568141 Z"
       id="rect1417" />
  </g>
</svg>

<?xml version="1.0" encoding="UTF-8"?>
<svg id="svg1535" width="128" height="128" version="1.1" viewBox="0 0 33.867 33.867" xmlns="http://www.w3.org/2000/svg" xmlns:cc="http://creativecommons.org/ns#" xmlns:dc="http://purl.org/dc/elements/1.1/" xmlns:rdf="http://www.w3.org/1999/02/22-rdf-syntax-ns#" xmlns:xlink="http://www.w3.org/1999/xlink">
 <defs id="defs1529">
  <linearGradient id="linearGradient2042" x1="26.124" x2="4.9738" y1="6.4082" y2="28.952" gradientTransform="translate(-.036573 -.061895)" gradientUnits="userSpaceOnUse">
   <stop id="stop2036" offset="0"/>
   <stop id="stop2038" offset="1"/>
  </linearGradient>
  <linearGradient id="linearGradient7784" x1="17.585" x2="17.585" y1="25.475" y2="4.3134" gradientTransform="translate(-.036573 -.061895)" gradientUnits="userSpaceOnUse">
   <stop id="stop7778" stop-color="#0b95ff" offset="0"/>
   <stop id="stop7780" stop-color="#03caf1" offset="1"/>
  </linearGradient>
  <linearGradient id="linearGradient7756" x1="66.464" x2="79.515" y1="96.282" y2="21.265" gradientTransform="matrix(.26458 0 0 .26458 -.036573 -.061899)" gradientUnits="userSpaceOnUse">
   <stop id="stop7750" stop-color="#0b95ff" offset="0"/>
   <stop id="stop7752" stop-color="#5dc3ef" offset="1"/>
  </linearGradient>
 </defs>
 <metadata id="metadata1532">
  <rdf:RDF>
   <cc:Work rdf:about="">
    <dc:format>image/svg+xml</dc:format>
    <dc:type rdf:resource="http://purl.org/dc/dcmitype/StillImage"/>
    <dc:title/>
   </cc:Work>
  </rdf:RDF>
 </metadata>
 <g id="layer1">
  <g id="g1702" transform="matrix(.97573 0 0 .97573 -65.785 -37.265)" fill="none" opacity=".295" stroke="#000" stroke-linecap="round" stroke-linejoin="round" stroke-opacity=".02">
   <rect id="rect1634" x="69.84" y="40.71" width="29.811" height="29.811" rx="6.6099" ry="6.6099" stroke-width=".1"/>
   <rect id="rect1638" x="69.84" y="40.71" width="29.811" height="29.811" rx="6.6099" ry="6.6099" stroke-width=".2"/>
   <rect id="rect1640" x="69.84" y="40.71" width="29.811" height="29.811" rx="6.6099" ry="6.6099" stroke-width=".3"/>
   <rect id="rect1642" x="69.84" y="40.71" width="29.811" height="29.811" rx="6.6099" ry="6.6099" stroke-width=".4"/>
   <rect id="rect1644" x="69.84" y="40.71" width="29.811" height="29.811" rx="6.6099" ry="6.6099" stroke-width=".5"/>
   <rect id="rect1646" x="69.84" y="40.71" width="29.811" height="29.811" rx="6.6099" ry="6.6099" stroke-width=".6"/>
   <rect id="rect1648" x="69.84" y="40.71" width="29.811" height="29.811" rx="6.6099" ry="6.6099" stroke-width=".7"/>
   <rect id="rect1650" x="69.84" y="40.71" width="29.811" height="29.811" rx="6.6099" ry="6.6099" stroke-width=".8"/>
   <rect id="rect1652" x="69.84" y="40.71" width="29.811" height="29.811" rx="6.6099" ry="6.6099"/>
   <rect id="rect1654" x="69.84" y="40.71" width="29.811" height="29.811" rx="6.6099" ry="6.6099" stroke-width="1.2"/>
   <rect id="rect1656" x="69.84" y="40.71" width="29.811" height="29.811" rx="6.6099" ry="6.6099" stroke-width="1.4"/>
   <rect id="rect1658" x="69.84" y="40.71" width="29.811" height="29.811" rx="6.6099" ry="6.6099" stroke-width="1.6"/>
   <rect id="rect1660" x="69.84" y="40.71" width="29.811" height="29.811" rx="6.6099" ry="6.6099" stroke-width="1.8"/>
   <rect id="rect1662" x="69.84" y="40.71" width="29.811" height="29.811" rx="6.6099" ry="6.6099" stroke-width="2"/>
   <rect id="rect1664" x="69.84" y="40.71" width="29.811" height="29.811" rx="6.6099" ry="6.6099" stroke-width="2.2"/>
   <rect id="rect1666" x="69.84" y="40.71" width="29.811" height="29.811" rx="6.6099" ry="6.6099" stroke-width="2.6"/>
   <rect id="rect1668" x="69.84" y="40.71" width="29.811" height="29.811" rx="6.6099" ry="6.6099" stroke-width="3"/>
   <rect id="rect1670" x="69.84" y="40.71" width="29.811" height="29.811" rx="6.6099" ry="6.6099" stroke-width="3.4"/>
   <rect id="rect1672" x="69.84" y="40.71" width="29.811" height="29.811" rx="6.6099" ry="6.6099" stroke-width="3.8"/>
   <rect id="rect1674" x="69.84" y="40.71" width="29.811" height="29.811" rx="6.6099" ry="6.6099" stroke-width="4.2"/>
   <rect id="rect1676" x="69.84" y="40.71" width="29.811" height="29.811" rx="6.6099" ry="6.6099" stroke-width="4.6"/>
   <rect id="rect1678" x="69.84" y="40.71" width="29.811" height="29.811" rx="6.6099" ry="6.6099" stroke-width="5"/>
  </g>
  <rect id="rect849" x="2.3597" y="2.4567" width="29.087" height="29.087" rx="6.4495" ry="6.4495" fill="url(#linearGradient2042)" stroke-linecap="round" stroke-linejoin="round" stroke-width="2.688"/>
  <path id="rect901" d="m8.8094 2.4568c-3.573 0-6.4497 2.8762-6.4497 6.4492v16.189c0 3.573 2.8767 6.4492 6.4497 6.4492h16.188c3.573 0 6.4497-2.8762 6.4497-6.4492v-16.189c0-3.573-2.8767-6.4492-6.4497-6.4492z" fill="#dbdbde" stroke="#808080" stroke-width=".23368"/>
  <path id="rect897" d="m8.8094 2.4568c-3.573 0-6.4497 2.8762-6.4497 6.4492v16.189c0 0.42247 0.041513 0.83464 0.11834 1.234h28.851c0.07682-0.39939 0.11834-0.81157 0.11834-1.234v-16.189c0-3.573-2.8767-6.4492-6.4497-6.4492z"/>
  <path id="rect1848" d="m8.8094 2.4568c-3.4613 0-6.2694 2.6993-6.4415 6.1164-0.00427 0.11836-0.00827 0.23497-0.00827 0.3328v15.586h29.088v-15.586c0-0.11166-0.0027-0.22257-0.0083-0.3328-0.17208-3.4171-2.9801-6.1164-6.4414-6.1164z" fill="url(#linearGradient7784)" stroke="url(#linearGradient7756)" stroke-dasharray="0.0377164, 0.0377164" stroke-width=".15087"/>
  <path id="rect1413" d="m7.5805 2.5736c-2.8756 0.55055-5.0614 2.9977-5.2126 5.9996-0.00427 0.11836-0.00827 0.23497-0.00827 0.3328v15.586h5.2209z" fill="#afe1fe" opacity=".373"/>
  <path id="rect1415" d="m8.8094 2.4568c-3.4613 0-6.2694 2.6993-6.4415 6.1164-0.00427 0.11836-0.00827 0.23497-0.00827 0.3328v15.586h10.433v-22.035z" fill="#afe1fe" opacity=".373"/>
  <path id="rect1417" d="m8.8094 2.4568c-3.4613 0-6.2694 2.6993-6.4415 6.1164-0.00427 0.11836-0.00827 0.23497-0.00827 0.3328v15.586h15.31v-22.035z" fill="#afe1fe" opacity=".373"/>
 </g>
</svg>
